!!!!SEGMENT: pl-kk--kk-i-382--093-008_haslinger--msza-agnus.krn
!!!id: 18xx:1604
!!!COM: Haslinger
!!!COM-rism: pe30052852
!!!CDT:
!!!CNT:
!!!OTL: Msza – Agnus
!!!PDT:
!!!SMS-siglum: PL-Kk
!!!SMS-shelfmark: Kk.I.382
!!!NIFC-rismID: 1001142971
!!!URL-scan: http://repozytorium.nifc.pl/skany/pl-kk-nut--i-382
!!!ONB-nifc: S/T1 od 0056, T2 od 0131, A/B1 od 0201, B2 od 0274. Części Mszy: 1. Kyrie, 2. Gloria, 3. Graduale, 4. Credo, 5. Offertorium, 6. Sanctus, 7. Benedictus, 8. Agnus
!!!SMS-variant:
!!!SMS-altvar:
**kern	**text	**dynam	**kern	**text	**dynam	**kern	**text	**dynam	**kern	**text	**dynam
*part4	*part4	*part4	*part3	*part3	*part3	*part2	*part2	*part2	*part1	*part1	*part1
*staff4	*staff4	*	*staff3	*staff3	*	*staff2	*staff2	*	*staff1	*staff1	*
*I"Basso II	*	*	*I"Alto vel Basso I	*	*	*I"Tenore II	*	*	*I"Tenor I	*	*
*I'B II	*	*	*I'A vel B I	*	*	*I'T II	*	*	*I'T I	*	*
*clefF4	*	*	*clefF4	*	*	*clefG2	*	*	*clefG2	*	*
*	*	*	*	*	*	*ITrd8c12	*	*	*ITrd8c12	*	*
*k[b-e-a-d-]	*	*	*k[b-e-a-d-]	*	*	*k[b-e-a-d-]	*	*	*k[b-e-a-d-]	*	*
*A-:	*	*	*A-:	*	*	*A-:	*	*	*A-:	*	*
*M3/4	*	*	*M3/4	*	*	*M3/4	*	*	*M3/4	*	*
=1	=1	=1	=1	=1	=1	=1	=1	=1	=1	=1	=1
*	*	*	*	*	*below	*	*	*below	*2\right	*	*
!	!	!	!LO:TX:t=P:problem:4, 8, 16:center or right:global	!	!	!LO:TX:t=P:problem:4, 8, 16:center or right:global	!	!	!LO:TX:t=P:problem:oznaczenia dynamiczne we wszystkich głosach są na pieciolinii	!	!
!LO:TX:b:i:t=Andante	!	!	!LO:TX:a:i:t=Agnus	!	!	!LO:TX:a:i:t=Agnus Dei	!	!	!LO:TX:a:i:t=Agnus	!	!
!LO:TX:a:i:t=Agnus	!	!	!LO:TX:a:i:t=Andante sostenuto	!	!LO:DY:rj:t=p	!LO:TX:b:i:t=Andante	!	!LO:DY:rj	!LO:TX:a:i:t=Andante sostenuto	!	!LO:DY:rj
(>4AA-/	A-	.	(4A-\	A-	p	(4c\	A-	p	2e-\	A-	p
4GG/)	.	.	4B-\)	.	.	4d-\)	.	.	.	.	.
!	!	!	!	!	!	!	!	!	!LO:TX:t=P:problem:4, 8, 16:center or right:global	!	!
4AA-/	-gnus	.	4A-\	-gnus	.	4c\	-gnus	.	4e-\	-gnus	.
=2	=2	=2	=2	=2	=2	=2	=2	=2	=2	=2	=2
!LO:TX:t=P:problem:4, 8, 16:center or right:global	!	!	!	!	!	!	!	!	!	!	!
4D-/	De-	.	4A-\	De-	.	4d-\	De-	.	4f\	De-	.
4AA-/	-i	.	4A-\	-i	.	4c\	-i	.	4e-\	-i	.
8r	.	.	4r	.	.	8r	.	.	8r	.	.
8AA-/	qui	.	.	.	.	8c\	qui	.	8e-\	qui	.
=3	=3	=3	=3	=3	=3	=3	=3	=3	=3	=3	=3
!	!	!	!LO:TX:a:t=1.	!	!	!LO:LB:g=original	!	!	!	!	!
(8E-\L	tol-	.	2.r	.	.	8c/L	tol-	.	8e-\L	tol-	.
8En\J)	.	.	.	.	.	8B-/J	.	.	8d-\J	.	.
8F\	-lis	.	.	.	.	8A-/	-lis	.	8c\	-lis	.
8F\	pec-	.	.	.	.	8A-/	pec-	.	8c\	pec-	.
8D-\	-ca-	.	.	.	.	8c/	-ca-	.	8e-\	-ca-	.
8D-\	-ta	.	.	.	.	8B-/	-ta	.	8d-\	-ta	.
=4	=4	=4	=4	=4	=4	=4	=4	=4	=4	=4	=4
!LO:LB:g=original	!	!	!	!	!	!	!	!	!LO:LB:g=original	!	!
4E-X\	mun-	.	4r	.	.	8.A-/L	mun-	.	8.c\L	mun-	.
.	.	.	.	.	.	16B-/Jk	.	.	16d-\Jk	.	.
4E-\	-di	.	4r	.	.	4G/	-di	.	4B-\	-di	.
4r	.	.	8G\	mi-	.	8B-\	mi-	.	8e-\	mi-	.
.	.	.	8G\	-se-	.	8B-\	-se-	.	8e-\	-se-	.
=5	=5	=5	=5	=5	=5	=5	=5	=5	=5	=5	=5
!LO:TX:a:t=1.	!	!	!LO:LB:g=original	!	!	!	!	!	!	!	!
2.r	.	.	4F\	-re-	.	4A-/	-re-	.	8e-\L	-re-	.
.	.	.	.	.	.	.	.	.	8d\J	.	.
.	.	.	4F\	-re	.	4A-/	-re	.	4d\	-re	.
.	.	.	8E-\	mi-	.	8G/	mi-	.	8c\	mi-	.
.	.	.	8E-\	-se-	.	8G/	-se-	.	8c\	-se-	.
=6	=6	=6	=6	=6	=6	=6	=6	=6	=6	=6	=6
!	!	!	!	!	!	!LO:LB:g=original	!	!	!	!	!
4r	.	.	4Dn\	-re-	.	4F/	-re-	.	8c\L	-re-	.
.	.	.	.	.	.	.	.	.	8B-\J	.	.
4r	.	.	4D\	-re	.	4F/	-re	.	4B-\	-re	.
*	*	*below	*	*	*	*	*	*	*	*	*below
!	!	!LO:DY:rj	!	!	!	!	!	!LO:DY:rj	!	!	!LO:DY:rj
8Dn\	mi-	f	4r	.	.	8B-\	mi-	f	8f\	mi-	f
8D\	-se-	.	.	.	.	8B-\	-se-	.	8f\	-se-	.
=7	=7	=7	=7	=7	=7	=7	=7	=7	=7	=7	=7
!	!	!	!	!	!	!	!	!	!LO:LB:g=original	!	!
8E-\	-re-	.	8B-\	mi-	.	8B-\	-re-	.	8g\	-re-	.
8AA-/	-re	.	8A-\	-se-	.	8c\	-re	.	8f\	-re	.
2BB-/	no-	.	(4G\	-re-	.	(4B-/	no-	.	(4e-\	no-	.
.	.	.	4F\)	.	.	4A-/)	.	.	4d\)	.	.
=8	=8	=8	=8	=8	=8	=8	=8	=8	=8	=8	=8
*2\right	*	*	*2\right	*	*	*	*	*	*	*	*
2.E-;\	-bis	.	2.E-;\	-re	.	2.G;/	-bis	.	2.e-;\	-bis	.
=9	=9	=9	=9	=9	=9	=9	=9	=9	=9	=9	=9
!	!	!LO:DY:rj	!	!	!LO:DY:rj:t=p	!	!	!LO:DY:rj	!	!	!LO:DY:rj
(4AA-/	A-	p	4A-\	A-	p	(4c\	A-	p	2e-\	A-	p
4GG/)	.	.	4B-\	.	.	4d-X\)	.	.	.	.	.
4AA-/	-gnus	.	4A-\	-gnus	.	4c\	-gnus	.	4e-\	-gnus	.
=10	=10	=10	=10	=10	=10	=10	=10	=10	=10	=10	=10
!LO:LB:g=original	!	!	!LO:LB:g=original	!	!	!LO:LB:g=original	!	!	!	!	!
4C/	De-	.	4A-\	De-	.	4e-\	De-	.	4g-X\	De-	.
4D-X/	-i	.	4A-\	-i	.	4d-\	-i	.	4f\	-i	.
8r	.	.	8r	.	.	8r	.	.	8r	.	.
8D-/	qui	.	8A-\	qui	.	8A-/	qui	.	8f\	qui	.
=11	=11	=11	=11	=11	=11	=11	=11	=11	=11	=11	=11
!	!	!	!	!	!	!	!	!	!LO:LB:g=original	!	!
.	.	.	.	.	.	.	.	.	(8qf/	.	.
4C/	tol-	.	4F\	tol-	.	4A/	tol-	.	4e-\)	tol-	.
8C/	-lis	.	8F\	-lis	.	8A/	-lis	.	8e-\	-lis	.
8C/	pec-	.	8F\	pec-	.	8A/	pec-	.	8e-\	pec-	.
8BB-/	-ca-	.	8F\	-ca-	.	8B-/	-ca-	.	8d-X\	-ca-	.
8BB-/	-ta	.	8F\	-ta	.	8B-/	-ta	.	8d-\	-ta	.
=12	=12	=12	=12	=12	=12	=12	=12	=12	=12	=12	=12
!	!	!	!LO:TX:t=P:problem:takt 12 - repetycja	!	!	!	!	!	!	!	!
4F\	mun-	.	4F\yy	mun-	.	4B-/	mun-	.	4d-\	mun-	.
4F\	-di	.	8F\yy	-di	.	4A/	-di	.	4c\	-di	.
.	.	.	8F\yy	.	.	.	.	.	.	.	.
8F\	mi-	.	8F\yy	mi-	.	4r	.	.	4r	.	.
8E-\	-se-	.	8F\yy	-se-	.	.	.	.	.	.	.
=13	=13	=13	=13	=13	=13	=13	=13	=13	=13	=13	=13
(8.D-X/L	-re-	.	8.B-\L	-re-	.	4r	.	.	4r	.	.
16C/Jk	.	.	16c\Jk	.	.	.	.	.	.	.	.
4BB-/)	-re	.	4d-X\	-re	.	4r	.	.	4r	.	.
!	!	!	!LO:TX:t=P:problem:pauza napisana olowkiem	!	!	!	!	!	!	!	!
4r	.	.	4r	.	.	8B-/	mi-	.	8B-\	mi-	.
.	.	.	.	.	.	8A-/	-se-	.	8B-\	-se-	.
=14	=14	=14	=14	=14	=14	=14	=14	=14	=14	=14	=14
!LO:TX:a:t=1.	!	!	!LO:TX:a:t=1	!	!	!LO:LB:g=original	!	!	!LO:LB:g=original	!	!
!LO:LB:g=original	!	!	!	!	!	!	!	!	!	!	!
2.r	.	.	2.r	.	.	8.G-X/L	-re-	.	8.e-\L	-re-	.
.	.	.	.	.	.	16F/Jk	.	.	16f\Jk	.	.
.	.	.	.	.	.	4E-/	-re	.	4g-X\	-re	.
.	.	.	.	.	.	4r	.	.	8f\	mi-	.
.	.	.	.	.	.	.	.	.	8e-\	-se-	.
=15	=15	=15	=15	=15	=15	=15	=15	=15	=15	=15	=15
!	!	!	!LO:LB:g=original	!	!	!	!	!	!	!	!
8F\	mi-	.	8F\	mi-	.	8B-/	mi-	.	8d-X\	-re-	.
8F\	-se-	.	8F\	-se-	.	8B-/	-se-	.	8d-\	-re	.
2F\	-re-	.	2F\	-re-	.	(4B-/	-re-	.	2c\	no-	.
.	.	.	.	.	.	4A/)	.	.	.	.	.
=16	=16	=16	=16	=16	=16	=16	=16	=16	=16	=16	=16
*	*	*	*	*	*	*2\right	*	*	*	*	*
!	!	!	!	!	!	!LO:TX:b:t=V&colon; S&colon;	!	!	!	!	!
2.BB-;/	-re	.	2.F;\	-re	.	2.B-;\	-re	.	2.d-;\	-bis	.
=17	=17	=17	=17	=17	=17	=17	=17	=17	=17	=17	=17
!	!	!LO:DY:rj	!	!	!LO:DY:rj	!LO:PB:g=original	!	!LO:DY:rj:a	!	!	!LO:DY:rj
2BB-/	A-	f	2F\	A-	f	2A-X/	A-	f	2d\	A-	f
4BB-/	-gnus	.	4F\	-gnus	.	4A-/	-gnus	.	4d\	-gnus	.
=18	=18	=18	=18	=18	=18	=18	=18	=18	=18	=18	=18
!	!	!	!	!	!	!	!	!	!LO:LB:g=original	!	!
8BB-/L	De-	.	8F\L	De-	.	(8A-/L	De-	.	8d\L	De-	.
8E-/J	.	.	8E-\J	.	.	8G-X/J)	.	.	8e-\J	.	.
4E-\	-i	.	4E-\	-i	.	4G-/	-i	.	4e-\	-i	.
8r	.	.	8r	.	.	8r	.	.	8r	.	.
8E-\	qui	.	8G-X\	qui	.	8B-\	qui	.	8e-\	qui	.
=19	=19	=19	=19	=19	=19	=19	=19	=19	=19	=19	=19
!LO:LB:g=original	!	!	!	!	!	!	!	!	!	!	!
4D-X/	tol-	.	4Gn\	tol-	.	4B-\	tol-	.	4e\	tol-	.
8C/	-lis	.	8G\	-lis	.	8B-\	-lis	.	8e\	-lis	.
8C/	pec-	.	8G\	pec-	.	8B-\	pec-	.	8e\	pec-	.
8C/	-ca-	.	8G\	-ca-	.	8B-\	-ca-	.	8e\	-ca-	.
8C/	-ta	.	8G\	-ta	.	8B-\	-ta	.	8e\	-ta	.
=20	=20	=20	=20	=20	=20	=20	=20	=20	=20	=20	=20
!	!	!	!LO:LB:g=original	!	!	!	!	!	!	!	!
8C\L	mun-	.	8G\L	mun-	.	8B-\L	mun-	.	8e\L	mun-	.
8F\J	.	.	8A-\J	.	.	8A-\J	.	.	8f\J	.	.
4F\	-di	.	4A-\	-di	.	4A-/	-di	.	4f\	-di	.
8F\	mi-	.	8A-\	mi-	.	8c\	mi-	.	8f\	mi-	.
!	!	!	!	!	!	!LO:TX:t=P:problem:takt wykreślony	!	!	!	!	!
8E-X\	-se-	.	8A-\	-se-	.	8c-X\	-se-	.	8f\	-se-	.
=21	=21	=21	=21	=21	=21	=21	=21	=21	=21	=21	=21
!	!	!	!	!	!LO:DY:rj	!LO:LB:g=original	!	!	!LO:LB:g=original	!	!LO:DY:rj
4Dn\	-re-	.	4A-\	-re-	p	4B-\	-re-	.	4f\	-re-	p
4E-\	-re	.	4Gn\	-re	.	4B-\	-re	.	4e-\	-re	.
8GG/	mi-	.	8E-\	mi-	.	8B-\	mi-	.	8e-\	mi-	.
8GG/	-se-	.	8E-\	-se-	.	8B-\	-se-	.	8d-X\	-se-	.
=22	=22	=22	=22	=22	=22	=22	=22	=22	=22	=22	=22
!LO:LB:g=original	!	!	!	!	!	!	!	!	!	!	!
4GG/	-re-	.	4E-\	-re-	.	4B-\	-re-	.	4d-X\	-re-	.
4AA-/	-re	.	4E-\	-re	.	4A-\	-re	.	4c\	-re	.
!LO:TX:b:t=V&colon; S&colon;	!	!	!	!	!	!	!	!	!	!	!
4r	.	.	4r	.	.	4r	.	.	8c\	mi-	.
.	.	.	.	.	.	.	.	.	8c\	-se-	.
=23	=23	=23	=23	=23	=23	=23	=23	=23	=23	=23	=23
!LO:PB:g=original	!	!LO:DY:rj	!	!	!LO:DY:rj	!	!	!LO:DY:rj	!	!	!
4.A-\	mi-	f	4.A-\	mi-	f	4.c\	mi-	f	2f\	-re-	f
8A-\	-se-	.	8A-\	-se-	.	8c\	-se-	.	.	.	.
8A-\	-re-	.	8c\	-re-	.	8c\	-re-	.	4f#X\	-re	.
8A-\	-re	.	8c\	-re	.	8c\	-re	.	.	.	.
=24	=24	=24	=24	=24	=24	=24	=24	=24	=24	=24	=24
!	!	!	!	!	!	!LO:LB:g=original	!	!	!	!	!
4G\	no-	.	4dn\	no-	.	4B\	no-	.	4g\	no-	.
4G\	-bis	.	4G\	-bis	.	4G\	-bis	.	4G/	-bis	.
!	!	!LO:DY:a:rj	!	!	!LO:DY:rj	!	!	!LO:DY:rj	!	!	!
8GG/	mi-	pp	8G\	mi-	pp	8G/	mi-	pp	8G/	mi-	.
8GG/	-se-	.	8G\	-se-	.	8G/	-se-	.	8G/	-se-	.
=25	=25	=25	=25	=25	=25	=25	=25	=25	=25	=25	=25
!	!	!	!	!	!	!	!	!	!LO:LB:g=original	!	!
2GG/	-re-	.	2G\	-re-	.	2G/	-re-	.	2G/	-re-	.
4GG/	-re	.	4G\	-re	.	4G/	-re	.	4G/	-re	.
=26	=26	=26	=26	=26	=26	=26	=26	=26	=26	=26	=26
4GG/	no-	.	4G\	no-	.	4G/	no-	.	4G/	no-	.
4GG/	-bis	.	4G\	-bis	.	4G/	-bis	.	4G/	-bis	.
!	!	!	!LO:TX:t=P:problem:wpisany ółówkiem t. 33 partii B2	!	!	!	!	!	!	!	!
4r;	.	.	4r;	.	.	4r;	.	.	4r;	.	.
=27|!	=27|!	=27|!	=27|!	=27|!	=27|!	=27|!	=27|!	=27|!	=27|!	=27|!	=27|!
*k[b-e-a-]	*	*	*k[b-e-a-]	*	*	*k[b-e-a-]	*	*	*k[b-e-a-]	*	*
*E-:	*	*	*E-:	*	*	*E-:	*	*	*E-:	*	*
*M4/4	*	*	*M4/4	*	*	*M4/4	*	*	*M4/4	*	*
*met(c)	*	*	*met(c)	*	*	*met(c)	*	*	*met(c)	*	*
!LO:TX:b:i:t=Allo Maestoso	!	!	!LO:LB:g=original	!	!	!LO:TX:a:t=3.	!	!	!LO:LB:g=original	!	!
!LO:TX:a:i:t=Dona	!	!	!LO:TX:a:i:t=Dona	!	!	!LO:TX:b:i:t=Allegro Maestoso	!	!	!LO:TX:a:t=2	!	!
!LO:LB:g=original	!	!	!	!	!	!	!	!	!	!	!
4.E-\	Do-	.	2r	.	.	1r	.	.	1r	.	.
8E-\	-na	.	.	.	.	.	.	.	.	.	.
!	!	!	!	!	!LO:DY:rj	!	!	!	!	!	!
(8D\L	no-	.	4.B-\	Do-	f	.	.	.	.	.	.
8C\J)	.	.	.	.	.	.	.	.	.	.	.
(8D\L	-bis	.	.	.	.	.	.	.	.	.	.
8BB-\J)	.	.	8B-\	-na	.	.	.	.	.	.	.
=28	=28	=28	=28	=28	=28	=28	=28	=28	=28	=28	=28
4.E-\	pa-	.	8G\L	no-	.	1r	.	.	1r	.	.
.	.	.	8F\J	.	.	.	.	.	.	.	.
.	.	.	8G\L	-bis	.	.	.	.	.	.	.
8E-\	-cem	.	8E-\J	.	.	.	.	.	.	.	.
4.D\	pa-	.	8F\L	pa-	.	.	.	.	.	.	.
.	.	.	16G\L	.	.	.	.	.	.	.	.
.	.	.	16An\JJ	.	.	.	.	.	.	.	.
.	.	.	[4B-\	.	.	.	.	.	.	.	.
16C/LL	.	.	.	.	.	.	.	.	.	.	.
16BB-/JJ	.	.	.	.	.	.	.	.	.	.	.
=29	=29	=29	=29	=29	=29	=29	=29	=29	=29	=29	=29
!LO:LB:g=original	!	!	!	!	!	!	!	!	!	!	!
4.C/	.	.	8B-\L]	.	.	1r	.	.	2r	.	.
.	.	.	16A-X\L	.	.	.	.	.	.	.	.
.	.	.	16G\JJ	.	.	.	.	.	.	.	.
.	.	.	[4A-\	.	.	.	.	.	.	.	.
8D/	.	.	.	.	.	.	.	.	.	.	.
!	!	!	!	!	!	!	!	!	!LO:TX:a:i:t=Allegro Maestoso	!	!LO:DY:rj
2E-\	.	.	8A-\L]	.	.	.	.	.	4.e-\	Do-	f
.	.	.	16G\L	.	.	.	.	.	.	.	.
.	.	.	16F\JJ	.	.	.	.	.	.	.	.
.	.	.	4G\	.	.	.	.	.	.	.	.
.	.	.	.	.	.	.	.	.	8e-\	-na	.
=30	=30	=30	=30	=30	=30	=30	=30	=30	=30	=30	=30
!	!	!	!LO:LB:g=original	!	!	!LO:LB:g=original	!	!LO:DY:rj	!	!	!
4BB-/	-cem	.	4F\	-cem	.	4.B-\	Do-	f	8d\L	no-	.
.	.	.	.	.	.	.	.	.	8c\J	.	.
4r	.	.	4r	.	.	.	.	.	8d\L	-bis	.
.	.	.	.	.	.	8B-\	-na	.	8B-\J	.	.
2r	.	.	2r	.	.	8G/L	no-	.	(4.e-\	pa-	.
.	.	.	.	.	.	8F/J	.	.	.	.	.
.	.	.	.	.	.	8G/L	-bis	.	.	.	.
.	.	.	.	.	.	8E-/J	.	.	8d\)	.	.
=31	=31	=31	=31	=31	=31	=31	=31	=31	=31	=31	=31
!LO:TX:a:t=2.	!	!	!LO:TX:a:t=3.	!	!	!	!	!	!LO:LB:g=original	!	!
1r	.	.	1r	.	.	(4.A-/	pa-	.	8c\L	.	.
.	.	.	.	.	.	.	.	.	16d\L	.	.
.	.	.	.	.	.	.	.	.	16e-\JJ	.	.
.	.	.	.	.	.	.	.	.	4f\	.	.
.	.	.	.	.	.	16G/LL)	.	.	.	.	.
.	.	.	.	.	.	16F/JJ	.	.	.	.	.
.	.	.	.	.	.	(4.G/	.	.	8f\L	.	.
.	.	.	.	.	.	.	.	.	16e-\L	.	.
.	.	.	.	.	.	.	.	.	16d\JJ	.	.
.	.	.	.	.	.	.	.	.	4e-\	.	.
.	.	.	.	.	.	16F/LL)	.	.	.	.	.
.	.	.	.	.	.	16E-/JJ	.	.	.	.	.
=32	=32	=32	=32	=32	=32	=32	=32	=32	=32	=32	=32
1r	.	.	1r	.	.	4.F/	.	.	8e-\L	.	.
.	.	.	.	.	.	.	.	.	16d\L	.	.
.	.	.	.	.	.	.	.	.	16c\JJ	.	.
.	.	.	.	.	.	.	.	.	8d\L	.	.
.	.	.	.	.	.	8F#X/	.	.	8c\J	.	.
.	.	.	.	.	.	4.G/	.	.	8c\L	.	.
.	.	.	.	.	.	.	.	.	16B\L	.	.
.	.	.	.	.	.	.	.	.	16A\JJ	.	.
.	.	.	.	.	.	.	.	.	4B\	.	.
.	.	.	.	.	.	8F/	.	.	.	.	.
=33	=33	=33	=33	=33	=33	=33	=33	=33	=33	=33	=33
4.C/	do-	.	1r	.	.	4E-/	.	.	8c\L	.	.
.	.	.	.	.	.	.	.	.	8d\	.	.
.	.	.	.	.	.	4c\	-cem	.	8e-\	.	.
8C/	-na	.	.	.	.	.	.	.	8f\J	.	.
(8BBn/L	no-	.	.	.	.	2d\	pa-	.	4.g\	.	.
!LO:SIC:v:s=8AAn	!	!	!	!	!	!	!	!	!	!	!
8AA-/J)	.	.	.	.	.	.	.	.	.	.	.
(8BBn/L	-bis	.	.	.	.	.	.	.	.	.	.
8GG/J)	.	.	.	.	.	.	.	.	8f\	.	.
=34	=34	=34	=34	=34	=34	=34	=34	=34	=34	=34	=34
!	!	!	!	!	!	!LO:LB:g=original	!	!	!LO:LB:g=original	!	!
4.C/	pa-	.	2G\	do-	.	4c\	-cem	.	8f\L	.	.
.	.	.	.	.	.	.	.	.	16e-\L	.	.
.	.	.	.	.	.	.	.	.	16d\JJ	.	.
.	.	.	.	.	.	4r	.	.	8e-\L	.	.
8BB-X/	-cem	.	.	.	.	.	.	.	8e\J	.	.
8AA-X/L	pa-	.	2c\	-na	.	2r	.	.	4.f\	.	.
8GG/	.	.	.	.	.	.	.	.	.	.	.
8AA-/	.	.	.	.	.	.	.	.	.	.	.
8AAn/J	.	.	.	.	.	.	.	.	8e-X\	.	.
=35	=35	=35	=35	=35	=35	=35	=35	=35	=35	=35	=35
4BB-/	-[cem]	.	4.B-X\	no-	.	8B-\L	Do-	.	4d\	-cem	.
.	.	.	.	.	.	8c\J	.	.	.	.	.
!LO:TX:t=P:problem:brak części taktu, pierwsza nuta dopisana innym atramentem	!	!	!	!	!	!	!	!	!	!	!
4ryy	.	.	.	.	.	8d\L	-na	.	4r	.	.
.	.	.	8B-\	-bis	.	8e-\J	.	.	.	.	.
2ryy	.	.	8An\L	pa-	.	4.f\	pa-	.	2c\	pa-	.
.	.	.	8G\	.	.	.	.	.	.	.	.
.	.	.	8A\	.	.	.	.	.	.	.	.
.	.	.	8F\J	.	.	[8e-\	.	.	.	.	.
=36	=36	=36	=36	=36	=36	=36	=36	=36	=36	=36	=36
!LO:TX:a:t=2.	!	!	!	!	!	!	!	!	!	!	!
!LO:LB:g=original	!	!	!	!	!	!	!	!	!	!	!
1r	.	.	4B-\	-cem	.	8e-\L]	.	.	4B-\	-cem	.
.	.	.	.	.	.	16d\L	.	.	.	.	.
.	.	.	.	.	.	16c\JJ	.	.	.	.	.
.	.	.	8r	.	.	4d\	.	.	4r	.	.
.	.	.	[8B-\	pa-	.	.	.	.	.	.	.
.	.	.	8B-\L]	.	.	4.c\	.	.	2r	.	.
.	.	.	16A-X\L	.	.	.	.	.	.	.	.
.	.	.	16G\JJ	.	.	.	.	.	.	.	.
.	.	.	[4A-\	.	.	.	.	.	.	.	.
.	.	.	.	.	.	8f\	-cem	.	.	.	.
=37	=37	=37	=37	=37	=37	=37	=37	=37	=37	=37	=37
!	!	!	!LO:TX:t=P:problem:brak zakończenia ligatury	!	!	!	!	!	!LO:TX:b:t=1	!	!
!	!	!	!LO:LB:g=original	!	!	!	!	!	!	!	!
1r	.	.	8A-\L]	.	.	4.B-\	Do-	.	1r	.	.
.	.	.	16G\L	.	.	.	.	.	.	.	.
.	.	.	16F\JJ	.	.	.	.	.	.	.	.
.	.	.	4G\	.	.	.	.	.	.	.	.
.	.	.	.	.	.	8e-\	-na	.	.	.	.
.	.	.	4F\	.	.	(8e-\L	pa-	.	.	.	.
.	.	.	.	.	.	16d\L	.	.	.	.	.
.	.	.	.	.	.	16c\JJ)	.	.	.	.	.
.	.	.	8B-\L	.	.	4d\	.	.	.	.	.
.	.	.	8A-\J	.	.	.	.	.	.	.	.
=38	=38	=38	=38	=38	=38	=38	=38	=38	=38	=38	=38
!	!	!LO:DY:rj	!	!	!	!LO:LB:g=original	!	!	!	!	!
4.E-\	Do-	f	8G\	-cem	.	8e-\	-cem	.	2e-\	Do-	.
.	.	.	8G\L	Do-	.	8B-/L	Do-	.	.	.	.
.	.	.	8F\J	.	.	8A-/J	.	.	.	.	.
8E-\	-na	.	8E-\	-na	.	8G/	-na	.	.	.	.
(8D/L	no-	.	[2B-\	pa-	.	(2A-/	pa-	.	4.f\	.	.
8C/J)	.	.	.	.	.	.	.	.	.	.	.
(8D/L	-bis.	.	.	.	.	.	.	.	.	.	.
8BB-/J)	.	.	.	.	.	.	.	.	8f\	-na	.
=39	=39	=39	=39	=39	=39	=39	=39	=39	=39	=39	=39
!	!	!	!	!	!	!	!	!	!LO:PB:g=original	!	!
4.D-X/	Do-	.	8B-\L]	.	.	8G/L)	.	.	2.e-\	no-	.
.	.	.	8A-\	.	.	8A-/	.	.	.	.	.
.	.	.	8G\	.	.	8B-/	.	.	.	.	.
8D-/	-na	.	8B-\J	.	.	8G/J	.	.	.	.	.
(8C/L	no-	.	2A-\	.	.	2A-/	-cem	.	.	.	.
8BB-/J)	.	.	.	.	.	.	.	.	.	.	.
(8C/L	-bis	.	.	.	.	.	.	.	4e-\	-bis	.
8AA-/J)	.	.	.	.	.	.	.	.	.	.	.
=40	=40	=40	=40	=40	=40	=40	=40	=40	=40	=40	=40
4C-X/	pa-	.	1G-X\	.	.	(4A/	pa-	.	[2e-\	pa-	.
4BB-/	.	.	.	.	.	4B-/)	.	.	.	.	.
2AAn/	.	.	.	.	.	2c\	.	.	4.e-\]	.	.
.	.	.	.	.	.	.	.	.	16f\LL	.	.
.	.	.	.	.	.	.	.	.	16e-\JJ	.	.
=41	=41	=41	=41	=41	=41	=41	=41	=41	=41	=41	=41
!LO:LB:g=original	!	!	!	!	!	!	!	!	!	!	!
4BB-/	-cem	.	4F\	-cem	.	4B-\	-cem	.	8d\	.	.
.	.	.	.	.	.	.	.	.	8B-\L	.	.
8r	.	.	4r	.	.	(4B-\	pa-	.	8d\	.	.
8BB-/	pa-	.	.	.	.	.	.	.	8e-\J	.	.
(8AAn/L	.	.	4r	.	.	2c\)	.	.	4.f\	.	.
8FF/	.	.	.	.	.	.	.	.	.	.	.
8GG/	.	.	[4F\	pa-	.	.	.	.	.	.	.
8AA/J)	.	.	.	.	.	.	.	.	8e-\	.	.
=42	=42	=42	=42	=42	=42	=42	=42	=42	=42	=42	=42
!	!	!	!LO:TX:t=P:problem:brak zakończenia ligatury	!	!LO:LB:g=original	!	!	!	!	!	!
(4.BB-/	.	.	8F\L]	.	.	4B-\	-cem	.	8d\L	.	.
.	.	.	8D\	.	.	.	.	.	8B-\	.	.
.	.	.	8E-\	.	.	4r	.	.	8c\	.	.
8AA-X/)	.	.	8F\J	.	.	.	.	.	8d\J	.	.
4GG/	-cem	.	8E-\	.	.	8r	.	.	4.e-\	.	.
.	.	.	8E-\L	.	.	(<8G/L	pa-	.	.	.	.
4r	.	.	8F\	.	.	8A-/	.	.	.	.	.
.	.	.	8G\J	.	.	8B-/J	.	.	8d\	.	.
=43	=43	=43	=43	=43	=43	=43	=43	=43	=43	=43	=43
!LO:TX:a:t=1.	!	!	!	!	!	!	!	!	!LO:LB:g=original	!	!
1r	.	.	8A-\L	.	.	8c\L	.	.	8c\	.	.
.	.	.	8F\	.	.	8A\	.	.	4f\	.	.
.	.	.	8G\	.	.	8B-\	.	.	.	.	.
.	.	.	8An\J	.	.	8c\J	.	.	8e-\	.	.
.	.	.	8B-\L	.	.	(8d\L)	.	.	8d\	.	.
.	.	.	8G\	.	.	8B\	.	.	4g\	.	.
.	.	.	8A\	.	.	8c\	.	.	.	.	.
.	.	.	8Bn\J	.	.	8d\J)	.	.	8f\	.	.
=44	=44	=44	=44	=44	=44	=44	=44	=44	=44	=44	=44
4.C/	Do-	.	4c\	-cem	.	4c\	-cem	.	8e\L	.	.
.	.	.	.	.	.	.	.	.	8c\	.	.
.	.	.	4r	.	.	4r	.	.	8d\	.	.
8B-\	-na	.	.	.	.	.	.	.	8e\J	.	.
(8An\L	no-	.	(<2c\	pa-	.	2r	.	.	4.f\	.	.
8F\J)	.	.	.	.	.	.	.	.	.	.	.
(8G\L	-bis	.	.	.	.	.	.	.	.	.	.
8A\J)	.	.	.	.	.	.	.	.	8e-X\	.	.
=45	=45	=45	=45	=45	=45	=45	=45	=45	=45	=45	=45
!LO:LB:g=original	!	!	!	!	!	!LO:TX:a:t=2.	!	!	!	!	!
(<4.B-\	pa-	.	1B-X\)	.	.	1r	.	.	8d\L	.	.
.	.	.	.	.	.	.	.	.	8B-\	.	.
.	.	.	.	.	.	.	.	.	8c\	.	.
8A-X\)	.	.	.	.	.	.	.	.	8d\J	.	.
8G\L	.	.	.	.	.	.	.	.	4.e-\	.	.
(8E-\	.	.	.	.	.	.	.	.	.	.	.
8F\	.	.	.	.	.	.	.	.	.	.	.
8G\J)	.	.	.	.	.	.	.	.	8d\	.	.
=46	=46	=46	=46	=46	=46	=46	=46	=46	=46	=46	=46
!	!	!	!	!	!	!	!	!	!LO:LB:g=original	!	!
4A-\	.	.	2c\	.	.	1r	.	.	8c\L	.	.
.	.	.	.	.	.	.	.	.	8d\	.	.
4An\	.	.	.	.	.	.	.	.	8e-\	.	.
.	.	.	.	.	.	.	.	.	8f\J	.	.
4B-\	-cem	.	4B-\	-cem	.	.	.	.	4B-\	-cem	.
4BB-/	pa-	.	4r	.	.	.	.	.	4r	.	.
=47	=47	=47	=47	=47	=47	=47	=47	=47	=47	=47	=47
!	!	!	!LO:LB:g=original	!	!	!	!	!	!	!	!
[1BB-/	.	.	2En\	do-	.	2G/	Do-	.	4r	.	.
.	.	.	.	.	.	.	.	.	[4c\	pa-	.
.	.	.	2F\	-na	.	2A-X/	-na	.	8c\L]	.	.
.	.	.	.	.	.	.	.	.	8e\	.	.
.	.	.	.	.	.	.	.	.	8f\	.	.
.	.	.	.	.	.	.	.	.	8a-\J	.	.
=48	=48	=48	=48	=48	=48	=48	=48	=48	=48	=48	=48
!	!	!	!	!	!	!LO:LB:g=original	!	!	!	!	!
1BB-/_	.	.	2D\	no-	.	2F/	no-	.	4B-X\	.	.
.	.	.	.	.	.	.	.	.	4B-\	.	.
.	.	.	2E-X\	-bis	.	2G/	-bis	.	8B-\L	.	.
.	.	.	.	.	.	.	.	.	8d\	.	.
.	.	.	.	.	.	.	.	.	8e-X\	.	.
.	.	.	.	.	.	.	.	.	[8g\J	.	.
=49	=49	=49	=49	=49	=49	=49	=49	=49	=49	=49	=49
!	!	!	!	!	!	!	!	!	!LO:LB:g=original	!	!
1BB-/_	.	.	(4A-\	pa-	.	(<4c\	pa-	.	8g\]	.	.
.	.	.	.	.	.	.	.	.	4f\	.	.
.	.	.	4G\	.	.	4B-\	.	.	.	.	.
.	.	.	.	.	.	.	.	.	4e-\	.	.
.	.	.	4F\	.	.	4A-/	.	.	.	.	.
.	.	.	.	.	.	.	.	.	4d\	.	.
.	.	.	4E-\)	.	.	4G/)	.	.	.	.	.
.	.	.	.	.	.	.	.	.	8c\	.	.
=50	=50	=50	=50	=50	=50	=50	=50	=50	=50	=50	=50
(4BB-/]	.	.	4D\	-cem	.	4F/	-cem	.	4B-\	-cem	.
4BBn/	.	.	4d\	pa-	.	(<4f\	pa-	.	(<4a-\	pa-	.
4C/)	.	.	4e-\	.	.	4e-\)	.	.	4g\)	.	.
4AAn/	-cem	.	4c\	-cem	.	4e-\	-cem	.	4f\	-[cem]	.
=51	=51	=51	=51	=51	=51	=51	=51	=51	=51	=51	=51
!LO:LB:g=original	!	!	!	!	!	!	!	!	!	!	!
2BB-X/	pa-	.	1B-\	pa-	.	(2e-\	pa-	.	(2g\	pa-	.
2BB-/	-cem	.	.	.	.	2d\)	.	.	2f\)	.	.
=52	=52	=52	=52	=52	=52	=52	=52	=52	=52	=52	=52
!	!	!	!LO:LB:g=original	!	!	!	!	!	!	!	!
4.E-\	Do-	.	4G\	-cem	.	4e-\	-cem	.	8e-\	-cem	.
.	.	.	.	.	.	.	.	.	(8B-\L	pa-	.
.	.	.	(4G\	pa-	.	2.B-\	pa-	.	8d\	.	.
8E-\	-na	.	.	.	.	.	.	.	8e-\J)	.	.
(8D/L	no-	.	2A-\)	.	.	.	.	.	2f\	.	.
8C/J)	.	.	.	.	.	.	.	.	.	.	.
(8D/L	-bis	.	.	.	.	.	.	.	.	.	.
8BB-/J)	.	.	.	.	.	.	.	.	.	.	.
=53	=53	=53	=53	=53	=53	=53	=53	=53	=53	=53	=53
!	!	!	!LO:TX:t=P:problem:t. 53 - repetycja	!	!	!LO:LB:g=original	!	!	!LO:LB:g=original	!	!
4.E-/	Do-	.	4G\yy	-cem	.	4B-\	-cem	.	8e-\	-cem	.
.	.	.	.	.	.	.	.	.	8B-\L	pa-	.
.	.	.	(4G\yy	pa-	.	[2.B-\	pa-	.	8d\	.	.
8E-/	-na	.	.	.	.	.	.	.	8e-\J	.	.
(8D/L	no-	.	2A-\)yy	.	.	.	.	.	2f\	.	.
8C/J)	.	.	.	.	.	.	.	.	.	.	.
8D/L	-bis	.	.	.	.	.	.	.	.	.	.
8BB-/J	.	.	.	.	.	.	.	.	.	.	.
=54	=54	=54	=54	=54	=54	=54	=54	=54	=54	=54	=54
(4E-\	pa-	.	2G\	-cem	.	(2B-/]	.	.	2.e-\	.	.
4D-X\	.	.	.	.	.	.	.	.	.	.	.
4C/)	.	.	4A-\	pa-	.	4A-/)	.	.	.	.	.
4C-X/	.	.	4E-\	-cem	.	4A/	-cem	.	4e-\	-cem	.
=55	=55	=55	=55	=55	=55	=55	=55	=55	=55	=55	=55
1BB-/	.	.	(4G\	pa-	.	(4B-/	pa-	.	[2e-\	pa-	.
.	.	.	4G-X\)	.	.	4A/	.	.	.	.	.
.	.	.	2F\	.	.	2A-X/)	.	.	8e-\L]	.	.
.	.	.	.	.	.	.	.	.	8d\	.	.
.	.	.	.	.	.	.	.	.	8c\	.	.
.	.	.	.	.	.	.	.	.	8d\J	.	.
=56	=56	=56	=56	=56	=56	=56	=56	=56	=56	=56	=56
4E-\	-cem	.	4Gn\	-cem	.	4G/	-cem	.	4e-\	-cem	.
4r	.	.	4r	.	.	4r	.	.	4r	.	.
2B-\	pa-	.	2B-\	pa-	.	2d\	pa-	.	2f\	pa-	.
=57	=57	=57	=57	=57	=57	=57	=57	=57	=57	=57	=57
!	!	!	!	!	!	!	!	!	!LO:LB:g=original	!	!
4E-\	-cem	.	4B-\	-cem	.	4e-\	-cem	.	4g\	-cem	.
4r	.	.	4r	.	.	4r	.	.	4r	.	.
2BB-/	pa-	.	2F\	pa-	.	2A-/	pa-	.	2d\	pa-	.
=58	=58	=58	=58	=58	=58	=58	=58	=58	=58	=58	=58
!	!	!	!	!	!	!LO:LB:g=original	!	!	!	!	!
4E-\	-cem.	.	4E-\	-cem	.	4G/	-cem.	.	4e-\	-cem.	.
4r	.	.	4r	.	.	4r	.	.	4r	.	.
!	!	!	!	!	!	!LO:TX:b:i:t=Jg&colon; Kaczyński	!	!	!	!	!
2r;	.	.	2r;	.	.	2r;	.	.	2r;	.	.
==	==	==	==	==	==	==	==	==	==	==	==
*-	*-	*-	*-	*-	*-	*-	*-	*-	*-	*-	*-
!!!system-decoration: [(s1,s2,s3,s4)]
!!!RDF**kern: > = above
!!!RDF**kern: < = below
!!!RDF**dynam: p = "po."
!!!ENC: Andrzej Borzym
!!!END: 2021-03-05
